src/data/articles/compile-time-data-contracts-scala-3/images/08-optionality-edge-case.svg

<svg xmlns="http://www.w3.org/2000/svg" id="my-svg" width="100%" aria-roledescription="flowchart-v2" class="flowchart" style="font-family:arial,helvetica,sans-serif;font-size:16px;fill:#000;max-width:1171.28px;background-color:#fff" viewBox="0 0 1171.281 214.094"><style>@keyframes edge-animation-frame{0%{stroke-dashoffset:0}}@keyframes dash{to{stroke-dashoffset:0}}#my-svg .edge-thickness-normal{stroke-width:1px}#my-svg .edge-pattern-solid{stroke-dasharray:0}#my-svg .marker{fill:#06c;stroke:#06c}#my-svg .marker.cross{stroke:#06c}#my-svg .label,#my-svg svg{font-family:arial,helvetica,sans-serif}#my-svg svg{font-size:16px}#my-svg p{margin:0}#my-svg .label{color:#000}#my-svg span{fill:#000;color:#000}#my-svg .node circle,#my-svg .node path,#my-svg .node rect{fill:#fff;stroke:#06c;stroke-width:1px}#my-svg .flowchart-link{stroke:#06c;fill:none}#my-svg .edgeLabel,#my-svg .node .label{text-align:center}#my-svg .edgeLabel,#my-svg .edgeLabel p{background-color:#fff}#my-svg .edgeLabel rect{opacity:.5;background-color:#fff;fill:#fff}#my-svg .labelBkg{background-color:rgba(255,255,255,.5)}#my-svg :root{--mermaid-font-family:&quot;trebuchet ms&quot;,verdana,arial,sans-serif}</style><marker id="my-svg_flowchart-v2-pointEnd" class="marker flowchart-v2" markerHeight="8" markerUnits="userSpaceOnUse" markerWidth="8" orient="auto" refX="5" refY="5" viewBox="0 0 10 10"><path d="m0 0 10 5-10 5z" class="arrowMarkerPath" style="stroke-width:1;stroke-dasharray:1,0"/></marker><marker id="my-svg_flowchart-v2-pointStart" class="marker flowchart-v2" markerHeight="8" markerUnits="userSpaceOnUse" markerWidth="8" orient="auto" refX="4.5" refY="5" viewBox="0 0 10 10"><path d="m0 5 10 5V0z" class="arrowMarkerPath" style="stroke-width:1;stroke-dasharray:1,0"/></marker><marker id="my-svg_flowchart-v2-circleEnd" class="marker flowchart-v2" markerHeight="11" markerUnits="userSpaceOnUse" markerWidth="11" orient="auto" refX="11" refY="5" viewBox="0 0 10 10"><circle cx="5" cy="5" r="5" class="arrowMarkerPath" style="stroke-width:1;stroke-dasharray:1,0"/></marker><marker id="my-svg_flowchart-v2-circleStart" class="marker flowchart-v2" markerHeight="11" markerUnits="userSpaceOnUse" markerWidth="11" orient="auto" refX="-1" refY="5" viewBox="0 0 10 10"><circle cx="5" cy="5" r="5" class="arrowMarkerPath" style="stroke-width:1;stroke-dasharray:1,0"/></marker><marker id="my-svg_flowchart-v2-crossEnd" class="marker cross flowchart-v2" markerHeight="11" markerUnits="userSpaceOnUse" markerWidth="11" orient="auto" refX="12" refY="5.2" viewBox="0 0 11 11"><path d="m1 1 9 9m0-9-9 9" class="arrowMarkerPath" style="stroke-width:2;stroke-dasharray:1,0"/></marker><marker id="my-svg_flowchart-v2-crossStart" class="marker cross flowchart-v2" markerHeight="11" markerUnits="userSpaceOnUse" markerWidth="11" orient="auto" refX="-1" refY="5.2" viewBox="0 0 11 11"><path d="m1 1 9 9m0-9-9 9" class="arrowMarkerPath" style="stroke-width:2;stroke-dasharray:1,0"/></marker><g class="root"><g class="edgePaths"><path id="L_A_B_0" marker-end="url(#my-svg_flowchart-v2-pointEnd)" d="M199.625 107.047h46" class="edge-thickness-normal edge-pattern-solid edge-thickness-normal edge-pattern-solid flowchart-link" data-edge="true" data-et="edge" data-id="L_A_B_0" data-points="W3sieCI6MTk5LjYyNSwieSI6MTA3LjA0Njg3NX0seyJ4IjoyMjQuNjI1LCJ5IjoxMDcuMDQ2ODc1fSx7IngiOjI0OS42MjUsInkiOjEwNy4wNDY4NzV9XQ=="/><path id="L_B_C_0" marker-end="url(#my-svg_flowchart-v2-pointEnd)" d="m429.061 88.389 23.943-5.557c23.943-5.557 71.829-16.671 115.938-22.228s84.443-5.557 104.61-5.557h20.167" class="edge-thickness-normal edge-pattern-solid edge-thickness-normal edge-pattern-solid flowchart-link" data-edge="true" data-et="edge" data-id="L_B_C_0" data-points="W3sieCI6NDI5LjA2MDkxMzM1NTQwODQsInkiOjg4LjM4OTAzODM1NTQwODM5fSx7IngiOjU3Mi43MTg3NSwieSI6NTUuMDQ2ODc1fSx7IngiOjY5Ny43MTg3NSwieSI6NTUuMDQ2ODc1fV0="/><path id="L_B_D_0" marker-end="url(#my-svg_flowchart-v2-pointEnd)" d="m429.061 125.705 23.943 5.557c23.943 5.557 71.829 16.671 125.648 22.228s113.572 5.557 143.448 5.557h29.877" class="edge-thickness-normal edge-pattern-solid edge-thickness-normal edge-pattern-solid flowchart-link" data-edge="true" data-et="edge" data-id="L_B_D_0" data-points="W3sieCI6NDI5LjA2MDkxMzM1NTQwODQsInkiOjEyNS43MDQ3MTE2NDQ1OTE2MX0seyJ4Ijo1NzIuNzE4NzUsInkiOjE1OS4wNDY4NzV9LHsieCI6NzU1Ljk3NjU2MjUsInkiOjE1OS4wNDY4NzV9XQ=="/></g><g class="edgeLabels"><g class="edgeLabel"><foreignObject width="0" height="0" class="label" data-id="L_A_B_0"><div xmlns="http://www.w3.org/1999/xhtml" class="labelBkg" style="display:table-cell;white-space:nowrap;line-height:1.5;max-width:200px;text-align:center"><span class="edgeLabel"/></div></foreignObject></g><g class="edgeLabel"><foreignObject width="109.438" height="24" class="label" data-id="L_B_C_0" transform="translate(518 43.047)"><div xmlns="http://www.w3.org/1999/xhtml" class="labelBkg" style="display:table-cell;white-space:nowrap;line-height:1.5;max-width:200px;text-align:center"><span class="edgeLabel"><p>intended shape</p></span></div></foreignObject></g><g class="edgeLabel"><foreignObject width="200" height="48" class="label" data-id="L_B_D_0" transform="translate(472.719 135.047)"><div xmlns="http://www.w3.org/1999/xhtml" class="labelBkg" style="display:table;white-space:break-spaces;line-height:1.5;max-width:200px;text-align:center;width:200px"><span class="edgeLabel"><p>current code in github (consumes Option)</p></span></div></foreignObject></g></g><g class="nodes"><g id="flowchart-A-0" class="node default"><path d="M8 80.047h191.625v54H8z" class="basic label-container"/><g class="label" transform="translate(38 95.047)"><rect/><foreignObject width="131.625" height="24"><div xmlns="http://www.w3.org/1999/xhtml" style="display:table-cell;white-space:nowrap;line-height:1.5;max-width:200px;text-align:center"><span class="nodeLabel"><p>List[Option[String]]</p></span></div></foreignObject></g></g><g id="flowchart-B-1" class="node default"><path d="m99.047 0 99.047-99.047-99.047-99.047L0-99.047z" class="label-container" style="fill:#fff;stroke:#06c;stroke-width:1px" transform="translate(250.125 206.094)"/><g class="label" transform="translate(276.625 95.047)"><rect/><foreignObject width="144.094" height="24"><div xmlns="http://www.w3.org/1999/xhtml" style="display:table-cell;white-space:nowrap;line-height:1.5;max-width:200px;text-align:center"><span class="nodeLabel"><p>Element optionality?</p></span></div></foreignObject></g></g><g id="flowchart-C-3" class="node default"><path d="M697.719 28.047h465.563v54H697.719z" class="basic label-container"/><g class="label" transform="translate(727.719 43.047)"><rect/><foreignObject width="405.563" height="24"><div xmlns="http://www.w3.org/1999/xhtml" style="display:table;white-space:break-spaces;line-height:1.5;max-width:200px;text-align:center;width:200px"><span class="nodeLabel"><p>SequenceShape(OptionalShape(PrimitiveShape(String)))</p></span></div></foreignObject></g></g><g id="flowchart-D-5" class="node default"><path d="M755.977 132.047h349.047v54H755.977z" class="basic label-container"/><g class="label" transform="translate(785.977 147.047)"><rect/><foreignObject width="289.047" height="24"><div xmlns="http://www.w3.org/1999/xhtml" style="display:table;white-space:break-spaces;line-height:1.5;max-width:200px;text-align:center;width:200px"><span class="nodeLabel"><p>SequenceShape(PrimitiveShape(String))</p></span></div></foreignObject></g></g></g></g></svg>

<svg id="my-svg" width="100%" xmlns="http://www.w3.org/2000/svg" xmlns:xlink="http://www.w3.org/1999/xlink" class="flowchart" style="max-width: 1171.28px; background-color: white;" viewBox="0 0 1171.28125 214.09375" role="graphics-document document" aria-roledescription="flowchart-v2"><style>#my-svg{font-family:arial,helvetica,sans-serif;font-size:16px;fill:#000;}@keyframes edge-animation-frame{from{stroke-dashoffset:0;}}@keyframes dash{to{stroke-dashoffset:0;}}#my-svg .edge-animation-slow{stroke-dasharray:9,5!important;stroke-dashoffset:900;animation:dash 50s linear infinite;stroke-linecap:round;}#my-svg .edge-animation-fast{stroke-dasharray:9,5!important;stroke-dashoffset:900;animation:dash 20s linear infinite;stroke-linecap:round;}#my-svg .error-icon{fill:#fff4e1;}#my-svg .error-text{fill:#000b1e;stroke:#000b1e;}#my-svg .edge-thickness-normal{stroke-width:1px;}#my-svg .edge-thickness-thick{stroke-width:3.5px;}#my-svg .edge-pattern-solid{stroke-dasharray:0;}#my-svg .edge-thickness-invisible{stroke-width:0;fill:none;}#my-svg .edge-pattern-dashed{stroke-dasharray:3;}#my-svg .edge-pattern-dotted{stroke-dasharray:2;}#my-svg .marker{fill:#0066cc;stroke:#0066cc;}#my-svg .marker.cross{stroke:#0066cc;}#my-svg svg{font-family:arial,helvetica,sans-serif;font-size:16px;}#my-svg p{margin:0;}#my-svg .label{font-family:arial,helvetica,sans-serif;color:#000;}#my-svg .cluster-label text{fill:#000b1e;}#my-svg .cluster-label span{color:#000b1e;}#my-svg .cluster-label span p{background-color:transparent;}#my-svg .label text,#my-svg span{fill:#000;color:#000;}#my-svg .node rect,#my-svg .node circle,#my-svg .node ellipse,#my-svg .node polygon,#my-svg .node path{fill:#ffffff;stroke:#0066cc;stroke-width:1px;}#my-svg .rough-node .label text,#my-svg .node .label text,#my-svg .image-shape .label,#my-svg .icon-shape .label{text-anchor:middle;}#my-svg .node .katex path{fill:#000;stroke:#000;stroke-width:1px;}#my-svg .rough-node .label,#my-svg .node .label,#my-svg .image-shape .label,#my-svg .icon-shape .label{text-align:center;}#my-svg .node.clickable{cursor:pointer;}#my-svg .root .anchor path{fill:#0066cc!important;stroke-width:0;stroke:#0066cc;}#my-svg .arrowheadPath{fill:#000000;}#my-svg .edgePath .path{stroke:#0066cc;stroke-width:2.0px;}#my-svg .flowchart-link{stroke:#0066cc;fill:none;}#my-svg .edgeLabel{background-color:#ffffff;text-align:center;}#my-svg .edgeLabel p{background-color:#ffffff;}#my-svg .edgeLabel rect{opacity:0.5;background-color:#ffffff;fill:#ffffff;}#my-svg .labelBkg{background-color:rgba(255, 255, 255, 0.5);}#my-svg .cluster rect{fill:#fff4e1;stroke:hsl(38, 60%, 84.1176470588%);stroke-width:1px;}#my-svg .cluster text{fill:#000b1e;}#my-svg .cluster span{color:#000b1e;}#my-svg div.mermaidTooltip{position:absolute;text-align:center;max-width:200px;padding:2px;font-family:arial,helvetica,sans-serif;font-size:12px;background:#fff4e1;border:1px solid hsl(38, 60%, 84.1176470588%);border-radius:2px;pointer-events:none;z-index:100;}#my-svg .flowchartTitleText{text-anchor:middle;font-size:18px;fill:#000;}#my-svg rect.text{fill:none;stroke-width:0;}#my-svg .icon-shape,#my-svg .image-shape{background-color:#ffffff;text-align:center;}#my-svg .icon-shape p,#my-svg .image-shape p{background-color:#ffffff;padding:2px;}#my-svg .icon-shape rect,#my-svg .image-shape rect{opacity:0.5;background-color:#ffffff;fill:#ffffff;}#my-svg .label-icon{display:inline-block;height:1em;overflow:visible;vertical-align:-0.125em;}#my-svg .node .label-icon path{fill:currentColor;stroke:revert;stroke-width:revert;}#my-svg :root{--mermaid-font-family:"trebuchet ms",verdana,arial,sans-serif;}</style><g><marker id="my-svg_flowchart-v2-pointEnd" class="marker flowchart-v2" viewBox="0 0 10 10" refX="5" refY="5" markerUnits="userSpaceOnUse" markerWidth="8" markerHeight="8" orient="auto"><path d="M 0 0 L 10 5 L 0 10 z" class="arrowMarkerPath" style="stroke-width: 1; stroke-dasharray: 1, 0;"/></marker><marker id="my-svg_flowchart-v2-pointStart" class="marker flowchart-v2" viewBox="0 0 10 10" refX="4.5" refY="5" markerUnits="userSpaceOnUse" markerWidth="8" markerHeight="8" orient="auto"><path d="M 0 5 L 10 10 L 10 0 z" class="arrowMarkerPath" style="stroke-width: 1; stroke-dasharray: 1, 0;"/></marker><marker id="my-svg_flowchart-v2-circleEnd" class="marker flowchart-v2" viewBox="0 0 10 10" refX="11" refY="5" markerUnits="userSpaceOnUse" markerWidth="11" markerHeight="11" orient="auto"><circle cx="5" cy="5" r="5" class="arrowMarkerPath" style="stroke-width: 1; stroke-dasharray: 1, 0;"/></marker><marker id="my-svg_flowchart-v2-circleStart" class="marker flowchart-v2" viewBox="0 0 10 10" refX="-1" refY="5" markerUnits="userSpaceOnUse" markerWidth="11" markerHeight="11" orient="auto"><circle cx="5" cy="5" r="5" class="arrowMarkerPath" style="stroke-width: 1; stroke-dasharray: 1, 0;"/></marker><marker id="my-svg_flowchart-v2-crossEnd" class="marker cross flowchart-v2" viewBox="0 0 11 11" refX="12" refY="5.2" markerUnits="userSpaceOnUse" markerWidth="11" markerHeight="11" orient="auto"><path d="M 1,1 l 9,9 M 10,1 l -9,9" class="arrowMarkerPath" style="stroke-width: 2; stroke-dasharray: 1, 0;"/></marker><marker id="my-svg_flowchart-v2-crossStart" class="marker cross flowchart-v2" viewBox="0 0 11 11" refX="-1" refY="5.2" markerUnits="userSpaceOnUse" markerWidth="11" markerHeight="11" orient="auto"><path d="M 1,1 l 9,9 M 10,1 l -9,9" class="arrowMarkerPath" style="stroke-width: 2; stroke-dasharray: 1, 0;"/></marker><g class="root"><g class="clusters"/><g class="edgePaths"><path d="M199.625,107.047L203.792,107.047C207.958,107.047,216.292,107.047,223.958,107.047C231.625,107.047,238.625,107.047,242.125,107.047L245.625,107.047" id="L_A_B_0" class="edge-thickness-normal edge-pattern-solid edge-thickness-normal edge-pattern-solid flowchart-link" style=";" data-edge="true" data-et="edge" data-id="L_A_B_0" data-points="W3sieCI6MTk5LjYyNSwieSI6MTA3LjA0Njg3NX0seyJ4IjoyMjQuNjI1LCJ5IjoxMDcuMDQ2ODc1fSx7IngiOjI0OS42MjUsInkiOjEwNy4wNDY4NzV9XQ==" marker-end="url(#my-svg_flowchart-v2-pointEnd)"/><path d="M429.061,88.389L453.004,82.832C476.947,77.275,524.833,66.161,568.942,60.604C613.052,55.047,653.385,55.047,673.552,55.047L693.719,55.047" id="L_B_C_0" class="edge-thickness-normal edge-pattern-solid edge-thickness-normal edge-pattern-solid flowchart-link" style=";" data-edge="true" data-et="edge" data-id="L_B_C_0" data-points="W3sieCI6NDI5LjA2MDkxMzM1NTQwODQsInkiOjg4LjM4OTAzODM1NTQwODM5fSx7IngiOjU3Mi43MTg3NSwieSI6NTUuMDQ2ODc1fSx7IngiOjY5Ny43MTg3NSwieSI6NTUuMDQ2ODc1fV0=" marker-end="url(#my-svg_flowchart-v2-pointEnd)"/><path d="M429.061,125.705L453.004,131.262C476.947,136.819,524.833,147.933,578.652,153.49C632.471,159.047,692.224,159.047,722.1,159.047L751.977,159.047" id="L_B_D_0" class="edge-thickness-normal edge-pattern-solid edge-thickness-normal edge-pattern-solid flowchart-link" style=";" data-edge="true" data-et="edge" data-id="L_B_D_0" data-points="W3sieCI6NDI5LjA2MDkxMzM1NTQwODQsInkiOjEyNS43MDQ3MTE2NDQ1OTE2MX0seyJ4Ijo1NzIuNzE4NzUsInkiOjE1OS4wNDY4NzV9LHsieCI6NzU1Ljk3NjU2MjUsInkiOjE1OS4wNDY4NzV9XQ==" marker-end="url(#my-svg_flowchart-v2-pointEnd)"/></g><g class="edgeLabels"><g class="edgeLabel"><g class="label" data-id="L_A_B_0" transform="translate(0, 0)"><foreignObject width="0" height="0"><div xmlns="http://www.w3.org/1999/xhtml" class="labelBkg" style="display: table-cell; white-space: nowrap; line-height: 1.5; max-width: 200px; text-align: center;"><span class="edgeLabel"></span></div></foreignObject></g></g><g class="edgeLabel" transform="translate(572.71875, 55.046875)"><g class="label" data-id="L_B_C_0" transform="translate(-54.71875, -12)"><foreignObject width="109.4375" height="24"><div xmlns="http://www.w3.org/1999/xhtml" class="labelBkg" style="display: table-cell; white-space: nowrap; line-height: 1.5; max-width: 200px; text-align: center;"><span class="edgeLabel"><p>intended shape</p></span></div></foreignObject></g></g><g class="edgeLabel" transform="translate(572.71875, 159.046875)"><g class="label" data-id="L_B_D_0" transform="translate(-100, -24)"><foreignObject width="200" height="48"><div xmlns="http://www.w3.org/1999/xhtml" class="labelBkg" style="display: table; white-space: break-spaces; line-height: 1.5; max-width: 200px; text-align: center; width: 200px;"><span class="edgeLabel"><p>current code in github (consumes Option)</p></span></div></foreignObject></g></g></g><g class="nodes"><g class="node default" id="flowchart-A-0" transform="translate(103.8125, 107.046875)"><rect class="basic label-container" style="" x="-95.8125" y="-27" width="191.625" height="54"/><g class="label" style="" transform="translate(-65.8125, -12)"><rect/><foreignObject width="131.625" height="24"><div xmlns="http://www.w3.org/1999/xhtml" style="display: table-cell; white-space: nowrap; line-height: 1.5; max-width: 200px; text-align: center;"><span class="nodeLabel"><p>List[Option[String]]</p></span></div></foreignObject></g></g><g class="node default" id="flowchart-B-1" transform="translate(348.671875, 107.046875)"><polygon points="99.046875,0 198.09375,-99.046875 99.046875,-198.09375 0,-99.046875" class="label-container" transform="translate(-98.546875, 99.046875)"/><g class="label" style="" transform="translate(-72.046875, -12)"><rect/><foreignObject width="144.09375" height="24"><div xmlns="http://www.w3.org/1999/xhtml" style="display: table-cell; white-space: nowrap; line-height: 1.5; max-width: 200px; text-align: center;"><span class="nodeLabel"><p>Element optionality?</p></span></div></foreignObject></g></g><g class="node default" id="flowchart-C-3" transform="translate(930.5, 55.046875)"><rect class="basic label-container" style="" x="-232.78125" y="-27" width="465.5625" height="54"/><g class="label" style="" transform="translate(-202.78125, -12)"><rect/><foreignObject width="405.5625" height="24"><div xmlns="http://www.w3.org/1999/xhtml" style="display: table; white-space: break-spaces; line-height: 1.5; max-width: 200px; text-align: center; width: 200px;"><span class="nodeLabel"><p>SequenceShape(OptionalShape(PrimitiveShape(String)))</p></span></div></foreignObject></g></g><g class="node default" id="flowchart-D-5" transform="translate(930.5, 159.046875)"><rect class="basic label-container" style="" x="-174.5234375" y="-27" width="349.046875" height="54"/><g class="label" style="" transform="translate(-144.5234375, -12)"><rect/><foreignObject width="289.046875" height="24"><div xmlns="http://www.w3.org/1999/xhtml" style="display: table; white-space: break-spaces; line-height: 1.5; max-width: 200px; text-align: center; width: 200px;"><span class="nodeLabel"><p>SequenceShape(PrimitiveShape(String))</p></span></div></foreignObject></g></g></g></g></g></svg>
